svg/fluentui-system-icons/ic_fluent_person_arrow_back_32_filled.svg

<svg width="32" height="32" viewBox="0 0 32 32" fill="none" xmlns="http://www.w3.org/2000/svg">
<path d="M15 16C18.866 16 22 12.866 22 8.99998C22 5.134 18.866 2 15 2C11.134 2 8 5.134 8 8.99998C8 12.866 11.134 16 15 16ZM6.5 18C4.56696 18 2.99994 19.567 3 21.5001L3.00001 22C3.00003 24.3935 4.52264 26.4174 6.68492 27.7934C8.85906 29.177 11.8015 30 14.9999 30C15.7443 30 16.4749 29.9554 17.1851 29.8696C15.2368 28.2187 14 25.7538 14 23C14 21.1498 14.5583 19.4301 15.5156 18H6.5ZM23 30.5C27.1421 30.5 30.5 27.1421 30.5 23C30.5 18.8579 27.1421 15.5 23 15.5C18.8579 15.5 15.5 18.8579 15.5 23C15.5 27.1421 18.8579 30.5 23 30.5ZM21.7803 20.2803L20.5607 21.5H23.25C25.5972 21.5 27.5 23.4028 27.5 25.75V26.25C27.5 26.6642 27.1642 27 26.75 27C26.3358 27 26 26.6642 26 26.25V25.75C26 24.2312 24.7688 23 23.25 23H20.5607L21.7803 24.2197C22.0732 24.5126 22.0732 24.9874 21.7803 25.2803C21.4874 25.5732 21.0126 25.5732 20.7197 25.2803L18.2197 22.7803C17.9268 22.4874 17.9268 22.0126 18.2197 21.7197L20.7197 19.2197C21.0126 18.9268 21.4874 18.9268 21.7803 19.2197C22.0732 19.5126 22.0732 19.9874 21.7803 20.2803Z" fill="#212121"/>
</svg>

<svg xmlns="http://www.w3.org/2000/svg" width="32" height="32"><path d="M15 16a7 7 0 1 0 0-14 7 7 0 0 0 0 14Zm-8.5 2A3.5 3.5 0 0 0 3 21.5v.5c0 2.393 1.523 4.417 3.685 5.793C8.859 29.177 11.802 30 15 30c.744 0 1.475-.045 2.185-.13A8.98 8.98 0 0 1 14 23c0-1.85.558-3.57 1.516-5H6.5ZM23 30.5a7.5 7.5 0 1 0 0-15 7.5 7.5 0 0 0 0 15Zm-1.22-10.22-1.22 1.22h2.69a4.25 4.25 0 0 1 4.25 4.25v.5a.75.75 0 0 1-1.5 0v-.5A2.75 2.75 0 0 0 23.25 23h-2.69l1.22 1.22a.75.75 0 1 1-1.06 1.06l-2.5-2.5a.75.75 0 0 1 0-1.06l2.5-2.5a.75.75 0 1 1 1.06 1.06Z"/></svg>
